src/assets/images/Live.svg

<svg width="528" height="288" viewBox="0 0 528 288" fill="none" xmlns="http://www.w3.org/2000/svg">
<path d="M131.797 285.912C122.721 285.66 114.15 285.533 106.083 285.533C98.0155 285.533 90.4525 285.533 83.3938 285.533C69.0242 285.533 56.6714 285.66 46.3354 285.912C36.1255 286.29 27.6172 286.605 20.8105 286.857C12.9955 287.235 6.37792 287.613 0.957822 287.991C1.84016 279.546 2.59646 270.975 3.2267 262.277C3.983 253.58 4.61324 245.009 5.11744 236.563C5.62163 228.118 6.0628 219.925 6.44095 211.984C6.8191 204.043 7.13422 196.543 7.38632 189.484C7.89051 173.098 8.20563 157.279 8.33168 142.027C8.20563 126.901 7.89051 111.397 7.38632 95.5148C7.13422 88.7081 6.8191 81.5864 6.44095 74.1495C6.0628 66.5865 5.62163 58.8975 5.11744 51.0825C4.61324 43.2675 3.983 35.4525 3.2267 27.6374C2.59646 19.6963 1.84016 12.0074 0.957822 4.57047L56.7345 1.73437C54.3395 30.2214 52.7009 57.7001 51.8186 84.1704C50.9362 110.515 50.495 134.842 50.495 157.153C50.495 178.581 50.6841 196.921 51.0623 212.173C51.5665 227.425 52.0076 239.021 52.3858 246.963H53.1421C62.9739 246.963 72.5536 246.206 81.8812 244.694C91.3349 243.181 99.7802 241.479 107.217 239.589C115.914 237.446 124.108 234.988 131.797 232.215C131.671 233.601 131.608 235.366 131.608 237.509C131.481 239.274 131.418 241.605 131.418 244.505C131.418 247.278 131.418 250.681 131.418 254.715C131.418 258.748 131.418 263.349 131.418 268.517C131.418 273.559 131.544 279.357 131.797 285.912ZM202.888 275.891L152.973 280.996C153.225 272.55 153.414 263.79 153.54 254.715C153.792 245.513 153.981 236.374 154.107 227.299C154.233 218.223 154.359 209.337 154.485 200.64C154.611 191.816 154.674 183.497 154.674 175.682C154.801 157.279 154.864 139.191 154.864 121.418C154.737 105.536 154.548 90.1577 154.296 75.2839C154.17 68.9815 153.981 62.4899 153.729 55.8093C153.603 49.1288 153.414 42.5742 153.162 36.1457C152.91 29.7172 152.595 23.6669 152.217 17.9947C151.964 12.1964 151.586 7.02842 151.082 2.49066L198.729 0.221783C198.476 8.03682 198.224 16.1039 197.972 24.4232C197.846 32.6164 197.72 40.8095 197.594 49.0027C197.468 57.0698 197.342 64.8849 197.216 72.4478C197.216 80.0107 197.216 87.0695 197.216 93.624C197.216 126.523 197.594 157.909 198.35 187.783C199.233 217.53 200.745 246.899 202.888 275.891ZM379.105 2.49066C372.55 26.1879 366.878 49.759 362.088 73.2041C357.298 96.6492 353.201 120.031 349.798 143.35C346.395 166.669 343.496 189.925 341.101 213.118C338.706 236.311 336.563 259.441 334.672 282.508L263.392 277.781C260.492 254.588 257.593 231.522 254.694 208.581C251.795 185.514 248.581 162.573 245.052 139.758C241.648 116.817 237.867 94.0652 233.707 71.5024C229.547 48.8136 224.821 26.1879 219.527 3.6251C222.048 3.6251 224.569 3.75115 227.09 4.00325C229.611 4.1293 232.005 4.19232 234.274 4.19232C241.333 4.19232 248.077 4.00325 254.505 3.6251C260.934 3.24696 267.866 2.86881 275.303 2.49066C276.186 20.6417 277.383 39.486 278.896 59.0236C280.408 78.4351 282.173 98.0988 284.19 118.014C286.206 137.804 288.475 157.594 290.996 177.384C293.517 197.173 296.29 216.333 299.316 234.862C302.467 216.333 305.366 197.173 308.013 177.384C310.786 157.594 313.181 137.741 315.198 117.825C317.215 97.9097 318.853 78.183 320.114 58.6454C321.5 39.1079 322.446 20.2636 322.95 2.11252C328.244 2.74276 333.349 3.18393 338.265 3.43603C343.181 3.56208 348.033 3.6251 352.823 3.6251C361.016 3.6251 369.777 3.24696 379.105 2.49066ZM527.716 278.349C517.506 278.097 507.99 277.908 499.166 277.781C490.469 277.781 482.213 277.781 474.397 277.781C459.146 277.781 446.352 277.908 436.016 278.16C425.806 278.538 417.486 278.853 411.058 279.105C403.495 279.483 397.508 279.861 393.096 280.239C393.978 271.794 394.735 263.286 395.365 254.715C396.121 246.143 396.751 237.698 397.256 229.379C397.76 221.059 398.201 213.055 398.579 205.366C398.957 197.677 399.272 190.43 399.524 183.623C400.029 167.741 400.344 152.552 400.47 138.056C400.344 122.93 400.029 107.426 399.524 91.5442C399.272 84.7376 398.957 77.6158 398.579 70.1789C398.201 62.616 397.76 54.927 397.256 47.112C396.751 39.2969 396.121 31.4819 395.365 23.6669C394.735 15.7258 393.978 8.03682 393.096 0.59993C408.852 1.23017 422.907 1.73437 435.259 2.11252C447.738 2.36461 458.83 2.49066 468.536 2.49066C478.116 2.49066 486.372 2.42764 493.305 2.30159C500.238 2.04949 505.91 1.79739 510.321 1.5453C515.489 1.2932 519.775 0.978077 523.178 0.59993C523.178 0.473881 523.178 1.60832 523.178 4.00325C523.178 6.39818 523.241 9.5494 523.367 13.4569C523.494 17.3644 523.683 21.7761 523.935 26.6921C524.313 31.608 524.817 36.5869 525.447 41.6288C510.826 40.2423 498.032 39.36 487.065 38.9818C476.099 38.4776 466.709 38.2255 458.893 38.2255C455.616 38.2255 452.717 38.2255 450.196 38.2255C447.801 38.2255 445.532 38.3516 443.389 38.6037C443.137 52.5951 442.948 65.7672 442.822 78.12C442.696 90.3467 442.633 101.943 442.633 112.91C451.457 112.657 459.335 112.342 466.267 111.964C473.2 111.46 479.124 110.893 484.04 110.262C489.712 109.632 494.754 108.939 499.166 108.183C499.04 109.065 498.977 110.073 498.977 111.208C498.851 112.216 498.788 113.414 498.788 114.8C498.788 116.187 498.788 117.762 498.788 119.527C498.788 123.561 498.914 128.414 499.166 134.086C499.418 139.632 499.922 145.619 500.679 152.048C487.065 150.283 475.343 149.212 465.511 148.833C455.679 148.329 448.053 148.077 442.633 148.077C442.633 161.186 442.696 172.909 442.822 183.245C442.948 193.455 443.074 202.467 443.2 210.282C443.452 218.097 443.642 224.778 443.768 230.324C444.02 235.87 444.272 240.471 444.524 244.126C457.381 243.874 468.851 243.244 478.935 242.236C489.019 241.227 497.527 240.219 504.46 239.211C511.393 238.076 516.687 237.068 520.342 236.185C523.998 235.303 525.825 234.736 525.825 234.484C525.699 235.114 525.636 235.807 525.636 236.563C525.51 237.194 525.447 238.013 525.447 239.021C525.447 240.03 525.447 241.227 525.447 242.614C525.447 246.143 525.573 250.87 525.825 256.794C526.078 262.719 526.708 269.903 527.716 278.349Z" fill="white"/>
</svg>

<svg xmlns="http://www.w3.org/2000/svg" width="528" height="288" fill="none"><path fill="#fff" d="M131.797 285.912a929 929 0 0 0-25.714-.379h-22.69q-21.554 0-37.058.379l-25.524.945q-11.723.567-19.853 1.134a813 813 0 0 0 2.269-25.714 951 951 0 0 0 1.89-25.714q.757-12.667 1.324-24.579t.945-22.5q.757-24.579.946-47.457-.189-22.689-.946-46.512-.378-10.21-.945-21.365a1597 1597 0 0 0-1.324-23.068 734 734 0 0 0-1.89-23.445A596 596 0 0 0 .957 4.57l55.777-2.836q-3.592 42.73-4.915 82.436-1.324 39.517-1.324 72.983 0 32.142.567 55.02.757 22.878 1.324 34.79h.756q14.748 0 28.74-2.269 14.18-2.27 25.335-5.105 13.046-3.215 24.58-7.374-.189 2.08-.189 5.294-.19 2.647-.19 6.996v24.012q0 7.563.379 17.395m71.091-10.021-49.915 5.105q.378-12.669.567-26.281.378-13.803.567-27.416.189-13.614.378-26.659.189-13.236.189-24.958.19-27.604.19-54.264-.19-23.823-.568-46.134-.189-9.454-.567-19.475a968 968 0 0 0-.567-19.663 666 666 0 0 0-.945-18.151q-.38-8.699-1.135-15.504L198.729.22q-.38 11.724-.757 24.202l-.378 24.58q-.189 12.1-.378 23.445v21.176q0 49.348 1.134 94.159a2000 2000 0 0 0 4.538 88.108m176.217-273.4q-9.832 35.546-17.017 70.713a1258 1258 0 0 0-12.29 70.146 1674 1674 0 0 0-8.697 69.768 3302 3302 0 0 0-6.429 69.39l-71.28-4.727q-4.35-34.789-8.698-69.2a2444 2444 0 0 0-9.642-68.823 1976 1976 0 0 0-11.345-68.256 1411 1411 0 0 0-14.18-67.877q3.781 0 7.563.378 3.781.19 7.184.19 10.589 0 20.231-.568 9.643-.567 20.798-1.134 1.324 27.225 3.593 56.533a2553 2553 0 0 0 5.294 58.99q3.024 29.685 6.806 59.37t8.32 57.478q4.727-27.794 8.697-57.478a1567 1567 0 0 0 7.185-59.559 1628 1628 0 0 0 4.916-59.18q2.08-29.306 2.836-56.532a229 229 0 0 0 15.315 1.323q7.374.19 14.558.19 12.29 0 26.282-1.135m148.611 275.858q-15.314-.378-28.55-.568h-24.769q-22.877 0-38.381.379-15.315.567-24.958.945-11.344.567-17.962 1.134a835 835 0 0 0 2.269-25.524 930 930 0 0 0 1.891-25.336q.756-12.48 1.323-24.013t.945-21.743q.757-23.823.946-45.567-.189-22.689-.946-46.512-.378-10.21-.945-21.365-.567-11.345-1.323-23.067a737 737 0 0 0-1.891-23.445A597 597 0 0 0 393.096.6q23.635.945 42.163 1.513 18.718.378 33.277.378 14.37 0 24.769-.19 10.4-.378 17.016-.756 7.752-.378 12.857-.945v3.403q0 3.592.189 9.454.19 5.861.568 13.235.567 7.374 1.512 14.937-21.932-2.08-38.382-2.647-16.449-.756-28.172-.757h-8.697q-3.592 0-6.807.379a5075 5075 0 0 0-.567 39.516 3384 3384 0 0 0-.189 34.79q13.236-.38 23.634-.946 10.4-.756 17.773-1.702 8.508-.945 15.126-2.079-.189 1.323-.189 3.025-.189 1.512-.189 3.592v4.727q0 6.051.378 14.559.378 8.319 1.513 17.962-20.42-2.647-35.168-3.215-14.748-.756-22.878-.756 0 19.664.189 35.168a7247 7247 0 0 0 .378 27.037q.378 11.723.568 20.042.378 8.32.756 13.802 19.285-.378 34.411-1.89t25.525-3.025q10.4-1.702 15.882-3.026 5.483-1.323 5.483-1.701a10.6 10.6 0 0 0-.189 2.079q-.189.946-.189 2.458v3.593q0 5.294.378 14.18.38 8.887 1.891 21.555"/></svg>
